X:1
T:Title
%%score { ( 1 4 ) | ( 2 3 ) }
L:1/8
Q:1/4=100
M:4/4
K:C
V:1 treble nm="Grand Piano"
V:4 treble 
V:2 bass 
V:3 bass 
V:1
 E2 E2 G2 G2 | F2 [G,B,G]2 [G,CE]4 | [CF]2 [CEG]2 [CFA]2 [DAc]2 | [DGB]2 [CFA]2 [B,G]2 [DF]2 | %4
w: G.~F.~Root * * *||||
 [CE]2 [G,CE]2 [G,CG]2 [G,CG]2 | [G,B,F]2 [G,B,G]2 [G,CE]4 | [CF]2 [CEG]2 [A,CA]2 [Fd]2 | %7
w: |||
 c2 [DB]2 [Ec]4 | [Ec]3 [Ec] [Ec]cBA | [FB]8 | [FB]3 B [FB]BAG | [FA]-[CF-A-][CF-A-][CFA] [EG]4 | %12
w: |||||
 [CE]2 [DF]2 [EG]2 [Ec]2 | [Fd]2 [FA]2 [^Fc]2 [FB][FA] | [EG]2 [CEc]2 [DFc]2 [DFB]2 | [CEc]6 z2 |] %16
w: ||||
V:2
 [C,G,C]2 [C,G,C]2 [E,G,C]2 [E,G,C]2 | [D,G,B,]2 G,,2 C,4 | A,,2 C,2 F,2 D,2 | G,2 D,2 G,2 G,2 | %4
 C,2 C,2 E,2 E,2 | D,2 G,,2 C,4 | A,,2 C,2 F,2 [D,A,]2 | [G,E]2 [G,,G,]2 [C,G,]4 | %8
 [C,G,]4 z[K:treble] EEE | G,G,G,G, G,4 | z2 z F z FFF | C,C,C,C, [C,C]4 | %12
 [C,G,]2 [C,C]2 [C,C]2 [C,C]2 | [F,A,]2 [F,D]2 [D,D]2 [D,D][D,D] | G,2 G,2 G,,2 G,,2 | C,6 z2 |] %16
V:3
 x8 | x8 | x8 | x8 | x8 | x8 | x8 | x8 | z4 [C,G,]4[K:treble] | x8 | G,4 G,4 | x8 | x8 | x8 | x8 | %15
 x8 |] %16
V:4
 x8 | x8 | x8 | x8 | x8 | x8 | x8 | x8 | x8 | x8 | x8 | .C2 z2 z4 | x8 | x8 | x8 | x8 |] %16

